build/svg/cmd/sc_firstpage.svg

<?xml version="1.0" encoding="UTF-8" standalone="no"?>
<svg
   xmlns:dc="http://purl.org/dc/elements/1.1/"
   xmlns:cc="http://creativecommons.org/ns#"
   xmlns:rdf="http://www.w3.org/1999/02/22-rdf-syntax-ns#"
   xmlns:svg="http://www.w3.org/2000/svg"
   xmlns="http://www.w3.org/2000/svg"
   xmlns:sodipodi="http://sodipodi.sourceforge.net/DTD/sodipodi-0.dtd"
   xmlns:inkscape="http://www.inkscape.org/namespaces/inkscape"
   viewBox="0 0 16 16"
   version="1.1"
   id="svg4"
   sodipodi:docname="sc_firstpage.svg"
   inkscape:version="0.92.5 (2060ec1f9f, 2020-04-08)"
   inkscape:export-filename="/home/jupiter007/Libreoffice yaru theme fullcolor/build/cmd/sc_firstpage.png"
   inkscape:export-xdpi="95"
   inkscape:export-ydpi="95"><metadata
   id="metadata10">
  <rdf:RDF>
    <cc:Work
       rdf:about="">
      <dc:format>image/svg+xml</dc:format>
      <dc:type
         rdf:resource="http://purl.org/dc/dcmitype/StillImage" />
    </cc:Work>
  </rdf:RDF>
</metadata>
<defs
   id="defs8" />
<sodipodi:namedview
   pagecolor="#ffffff"
   bordercolor="#666666"
   borderopacity="1"
   objecttolerance="10"
   gridtolerance="10"
   guidetolerance="10"
   inkscape:pageopacity="0"
   inkscape:pageshadow="2"
   inkscape:window-width="1920"
   inkscape:window-height="1011"
   id="namedview6"
   showgrid="true"
   inkscape:zoom="14.75"
   inkscape:cx="0.44067797"
   inkscape:cy="8"
   inkscape:window-x="0"
   inkscape:window-y="32"
   inkscape:window-maximized="1"
   inkscape:current-layer="svg4">
  <inkscape:grid
     type="xygrid"
     id="grid825" />
</sodipodi:namedview>
/&gt;<path
   style="opacity:0.6;fill:#000000;stroke:#000000;stroke-width:3;stroke-linejoin:round;stroke-miterlimit:4;stroke-dasharray:none"
   id="path817"
   d="M 3.5000246,1.5000001 V 13.5 h 1 V 1.5000001 Z m 8.3613284,0 -3.6855472,4.125 -1.6757812,1.875 1.6757812,1.875 L 11.861353,13.5 12.500025,12.75 8.8144777,8.6562501 l -1.0351562,-1.15625 1.0351562,-1.15625 3.6855473,-4.125 z"
   inkscape:connector-curvature="0" />
<path
   d="M 3.5000246,1.5000001 V 13.5 h 1 V 1.5000001 Z m 8.3613284,0 -3.6855472,4.125 -1.6757812,1.875 1.6757812,1.875 L 11.861353,13.5 12.500025,12.75 8.8144777,8.6562501 l -1.0351562,-1.15625 1.0351562,-1.15625 3.6855473,-4.125 z"
   id="path2"
   style="fill:#ffffff;stroke:#ffffff;stroke-linejoin:round"
   inkscape:connector-curvature="0" />
</svg>

<svg xmlns="http://www.w3.org/2000/svg" viewBox="0 0 16 16">/&gt;<path d="M3.5 1.5v12h1v-12zm8.361 0L8.176 5.625 6.5 7.5l1.676 1.875L11.86 13.5l.639-.75-3.686-4.094L7.78 7.5l1.035-1.156L12.5 2.219z" opacity=".6" stroke="#000" stroke-width="3" stroke-linejoin="round"/><path d="M3.5 1.5v12h1v-12zm8.361 0L8.176 5.625 6.5 7.5l1.676 1.875L11.86 13.5l.639-.75-3.686-4.094L7.78 7.5l1.035-1.156L12.5 2.219z" fill="#fff" stroke="#fff" stroke-linejoin="round"/></svg>
